X: 3
T: Molly Ban
R: reel
M: 4/4
L: 1/8
K: Emin
EBBA B2 AG | FD !roll!D2 BDAF | EBBA B3 c | dBAc BE E2|
EBBA B2 AG | FD !roll!D2 BDAD | EBBA B3 c | dBAc BE E2 |]
e2 Be !roll!e2 fe | dB !roll!B2 d2 Bd | e2 Be !roll!e2 fe | dBAc BE E2 |
e2 Be !roll!e2 fe | dB !roll!B2 dcde | !roll!f3 e defe | dBAF BE E2 |]




